X:1
T:Tarry with Me, 87.87 D
T:F. S. Shepard, 1900
T:Tarry with Me, 87.87 D
T:Public Domain
C:F. S. Shepard, 1900
Z:Public Domain
%%score ( 1 2 ) ( 3 4 )
L:1/8
M:3/4
K:Bb
V:1 treble 
V:2 treble 
V:3 bass 
V:4 bass 
V:1
 [B,D]>[DF] | [DB]3 [DF] [B,D]>[DB] | [EA]2 [EG]2 E>[EG] | [DF]3 [^C=E] [_EG]>[EF] | %4
 [DF]4 [B,D]>[DF] | [DB]3 [DF] [B,D]>[DB] | [EA]2 [EG]2 E>[EG] | [DF]3 [DF] [EG]>[EA] | %8
 [DB]4 [B,D]>[B,D] | [B,G]3 [A,^F] [B,G]>[DB] | [DA]2 D2 D>[CD] | [B,G]3 [CA] [DB]>[Gc] | %12
 [^Fd]4 [=Fe]>[Fe] | [Fd]3 [Fd] [Fe]>[Fd] | [Gc]2 [EG]2 [EG]>[^CG] | [DF]3 [Fd] [Fd]>[Ec] | %16
 [DB]4 |] %17
V:2
 x2 | x6 | x4 E3/2 x/ | x6 | x6 | x6 | x4 E3/2 x/ | x6 | x6 | x6 | x2 D2 D3/2 x/ | x6 | x6 | x6 | %14
 x6 | x6 | x4 |] %17
V:3
 [B,,B,]>[B,,B,] | [B,,B,]3 [B,,B,] [B,,F,]>[B,,B,] | [E,B,]2 [E,B,]2 [E,G,]>[E,B,] | %3
 [F,B,]3 [G,B,] [F,A,]>[F,A,] | [B,,B,]4 [B,,B,]>[B,,B,] | [B,,B,]3 [B,,B,] [B,,F,]>[B,,B,] | %6
 [E,B,]2 [E,B,]2 [E,G,]>[E,B,] | [F,B,]3 [F,B,] [F,A,]>F, | [B,,F,]4 [B,,F,]>[B,,F,] | %9
 [G,,G,]3 [G,,G,] [G,,G,]>[G,,G,] | [D,^F,]2 [D,F,]2 [D,F,]>[D,F,] | [G,,G,]3 [G,,G,] G,>[E,G,] | %12
 [D,A,]4 [C,A,]>[C,A,] | [B,,B,]3 [B,,B,] [C,A,]>[D,B,] | [E,B,]2 [E,B,]2 [E,B,]>[=E,B,] | %15
 [F,B,]3 [F,B,] [F,A,]>F, | [B,,F,]4 |] %17
V:4
 x2 | x6 | x6 | x6 | x6 | x6 | x6 | x11/2 F,/ | x6 | x6 | x6 | x4 G,3/2 x/ | x6 | x6 | x6 | %15
 x11/2 F,/ | x4 |] %17

